src/Assets/MechanicPage/bot-icon.svg

<svg width="32" height="32" viewBox="0 0 32 32" fill="none" xmlns="http://www.w3.org/2000/svg">
<path d="M24.04 13.996H24.519C24.541 13.999 24.561 14.009 24.584 14.009C24.607 14.009 24.627 13.999 24.649 13.996H26.894C26.916 13.999 26.936 14.009 26.959 14.009C26.982 14.009 27.002 13.999 27.024 13.996H27.459V14.665H24.04V13.996ZM25.076 8.948C25.0723 8.91348 25.0656 8.87935 25.056 8.846C25.046 8.816 25.037 8.788 25.022 8.761C25.0077 8.73364 24.9906 8.70784 24.971 8.684C24.9501 8.65615 24.926 8.63097 24.899 8.609C24.889 8.6 24.883 8.587 24.871 8.579L21.511 6.221C21.847 5.826 22.077 5.345 22.16 4.81L26.459 7.865V12.996H25.084V8.988C25.084 8.974 25.077 8.962 25.076 8.948M17.464 4.371C17.464 3.34 18.303 2.5 19.334 2.5C20.365 2.5 21.204 3.34 21.204 4.371C21.2035 4.86688 21.0063 5.34232 20.6558 5.69306C20.3052 6.0438 19.8299 6.24121 19.334 6.242C18.303 6.242 17.464 5.402 17.464 4.371ZM11.369 20.356C10.821 20.356 10.304 20.482 9.83398 20.695L7.05298 13.777C7.63196 13.7586 8.19183 13.5655 8.65898 13.223L11.684 20.388C11.578 20.379 11.477 20.356 11.369 20.356ZM14.05 23.587H8.68898C8.80556 22.961 9.1372 22.3955 9.62656 21.9881C10.1159 21.5807 10.7322 21.3571 11.369 21.356C12.704 21.356 13.813 22.32 14.05 23.587M17.374 26.054V27.732H5.36398V26.207L6.98498 24.587H15.907L17.374 26.054V26.054ZM19.28 29.5H3.45898V28.732H19.28V29.5ZM5.06298 10.891C5.06298 9.845 5.91398 8.995 6.95898 8.995C8.00398 8.995 8.85398 9.845 8.85398 10.891C8.85398 11.936 8.00398 12.786 6.95898 12.786C6.45647 12.7855 5.97467 12.5857 5.61925 12.2304C5.26382 11.8752 5.06378 11.3935 5.06298 10.891M9.21598 9.098L16.516 4.879C16.617 5.443 16.882 5.949 17.262 6.348L9.83598 10.709C9.79966 10.1211 9.58319 9.55859 9.21598 9.098M29.395 16.978L28.062 15.644C28.1732 15.6221 28.2735 15.5625 28.3458 15.4752C28.4181 15.3879 28.4581 15.2784 28.459 15.165V13.496C28.459 13.3634 28.4063 13.2362 28.3125 13.1424C28.2188 13.0487 28.0916 12.996 27.959 12.996H27.459V7.607C27.4592 7.52729 27.4402 7.4487 27.4037 7.37787C27.3671 7.30703 27.3141 7.24603 27.249 7.2L22.058 3.51C21.8763 2.92905 21.5144 2.42105 21.0246 2.05965C20.5348 1.69824 19.9427 1.50222 19.334 1.5C18.6899 1.50172 18.0652 1.72002 17.5602 2.11978C17.0553 2.51954 16.6994 3.07753 16.55 3.704L8.41798 8.404C7.97733 8.13883 7.47327 7.99753 6.95898 7.995C6.19124 7.99606 5.45525 8.30151 4.91237 8.84439C4.3695 9.38726 4.06404 10.1233 4.06298 10.891C4.06298 12.111 4.82398 13.152 5.89398 13.578L8.97798 21.247C8.27204 21.8394 7.81242 22.6738 7.68898 23.587H6.77798C6.64565 23.5871 6.51875 23.6396 6.42498 23.733L4.51098 25.647C4.41715 25.7405 4.36428 25.8675 4.36398 26V27.732H2.95898C2.82638 27.732 2.6992 27.7847 2.60543 27.8784C2.51166 27.9722 2.45898 28.0994 2.45898 28.232V30C2.45898 30.1326 2.51166 30.2598 2.60543 30.3536C2.6992 30.4473 2.82638 30.5 2.95898 30.5H19.78C20.057 30.5 20.28 30.277 20.28 30V28.232C20.28 28.0994 20.2273 27.9722 20.1335 27.8784C20.0398 27.7847 19.9126 27.732 19.78 27.732H18.374V25.847C18.3738 25.7144 18.3213 25.5872 18.228 25.493L16.468 23.733C16.3738 23.6397 16.2466 23.5872 16.114 23.587H15.05C14.9658 22.9617 14.7242 22.368 14.3478 21.8616C13.9714 21.3553 13.4725 20.9528 12.898 20.692L9.40598 12.421C9.49298 12.283 9.57298 12.139 9.63598 11.986L18.156 6.982C18.517 7.145 18.913 7.242 19.334 7.242C19.833 7.242 20.296 7.102 20.705 6.877L24.084 9.248V12.996H23.54C23.4074 12.996 23.2802 13.0487 23.1864 13.1424C23.0927 13.2362 23.04 13.3634 23.04 13.496V15.165C23.04 15.393 23.195 15.578 23.404 15.638L22.064 16.978C21.9708 17.0719 21.9183 17.1987 21.918 17.331V19.822C21.918 19.9546 21.9707 20.0818 22.0644 20.1756C22.1582 20.2693 22.2854 20.322 22.418 20.322C22.5506 20.322 22.6778 20.2693 22.7715 20.1756C22.8653 20.0818 22.918 19.9546 22.918 19.822V17.538L24.791 15.665H26.669L28.542 17.538V19.822C28.542 19.9546 28.5947 20.0818 28.6884 20.1756C28.7822 20.2693 28.9094 20.322 29.042 20.322C29.1746 20.322 29.3018 20.2693 29.3955 20.1756C29.4893 20.0818 29.542 19.9546 29.542 19.822V17.331C29.5417 17.1985 29.4888 17.0715 29.395 16.978" fill="#0C8CE9"/>
</svg>

<svg xmlns="http://www.w3.org/2000/svg" fill-rule="evenodd" stroke-linejoin="round" stroke-miterlimit="2" clip-rule="evenodd" viewBox="0 0 32 32"><path fill-rule="nonzero" d="M24.04 13.996h.479c.022.003.042.013.065.013s.043-.01.065-.013h2.245c.022.003.042.013.065.013s.043-.01.065-.013h.435v.669H24.04v-.669Zm1.036-5.048a.593.593 0 0 0-.02-.102c-.01-.03-.019-.058-.034-.085a.447.447 0 0 0-.051-.077.426.426 0 0 0-.072-.075c-.01-.009-.016-.022-.028-.03l-3.36-2.358c.336-.395.566-.876.649-1.411l4.299 3.055v5.131h-1.375V8.988c0-.014-.007-.026-.008-.04m-7.612-4.577c0-1.031.839-1.871 1.87-1.871 1.031 0 1.87.84 1.87 1.871a1.873 1.873 0 0 1-1.87 1.871c-1.031 0-1.87-.84-1.87-1.871m-6.095 15.985c-.548 0-1.065.126-1.535.339l-2.781-6.918a2.87 2.87 0 0 0 1.606-.554l3.025 7.165c-.106-.009-.207-.032-.315-.032m2.681 3.231H8.689a2.731 2.731 0 0 1 2.68-2.231c1.335 0 2.444.964 2.681 2.231m3.324 2.467v1.678H5.364v-1.525l1.621-1.62h8.922l1.467 1.467ZM19.28 29.5H3.459v-.768H19.28v.768ZM5.063 10.891c0-1.046.851-1.896 1.896-1.896s1.895.85 1.895 1.896c0 1.045-.85 1.895-1.895 1.895a1.898 1.898 0 0 1-1.896-1.895m4.153-1.793 7.3-4.219c.101.564.366 1.07.746 1.469l-7.426 4.361a2.868 2.868 0 0 0-.62-1.611m20.179 7.88-1.333-1.334a.492.492 0 0 0 .397-.479v-1.669a.5.5 0 0 0-.5-.5h-.5V7.607a.497.497 0 0 0-.21-.407l-5.191-3.69a2.865 2.865 0 0 0-2.724-2.01 2.87 2.87 0 0 0-2.784 2.204l-8.132 4.7a2.857 2.857 0 0 0-1.459-.409 2.9 2.9 0 0 0-2.896 2.896c0 1.22.761 2.261 1.831 2.687l3.084 7.669a3.702 3.702 0 0 0-1.289 2.34h-.911a.501.501 0 0 0-.353.146l-1.914 1.914a.5.5 0 0 0-.147.353v1.732H2.959a.5.5 0 0 0-.5.5V30a.5.5 0 0 0 .5.5H19.78c.277 0 .5-.223.5-.5v-1.768a.5.5 0 0 0-.5-.5h-1.406v-1.885a.504.504 0 0 0-.146-.354l-1.76-1.76a.504.504 0 0 0-.354-.146H15.05a3.725 3.725 0 0 0-2.152-2.895l-3.492-8.271c.087-.138.167-.282.23-.435l8.52-5.004c.361.163.757.26 1.178.26.499 0 .962-.14 1.371-.365l3.379 2.371v3.748h-.544a.5.5 0 0 0-.5.5v1.669c0 .228.155.413.364.473l-1.34 1.34a.503.503 0 0 0-.146.353v2.491a.5.5 0 0 0 1 0v-2.284l1.873-1.873h1.878l1.873 1.873v2.284a.5.5 0 0 0 1 0v-2.491a.5.5 0 0 0-.147-.353"/></svg>
